X: 32
T:New Lango Lee. ST.32
T:Lango Lee,aka. ST.32
T:Banks of the Dee,aka. ST.32
M:6/8
L:1/8
Q:100
C:Banks of the Dee,aka
S:Annonymous Staffordshire MS, Early 19thC.
R:JIg
O:England
A:Staffordshire
N:Different from the usual New Lango Lee....
Z:vmp.Tim Willets    
K:G
D|D>EF G>AB|c>ed cBA|BGE DEG|B>ccG2D|!
DEF GAB|ced dBA|BGE DEG|B>cAG2:|!
|:B|B2cd2d|e>dc dBG|Bcd efg|G>AG FED|!
cec BdB|A>GA BGE|GFE Ddc|B>eB|G2:|]
